src/assets/outline/CloudConnection.svg

<svg width="24" height="24" viewBox="0 0 24 24"  xmlns="http://www.w3.org/2000/svg">
<path d="M16.0598 16.7502C16.0498 16.7502 16.0398 16.7502 16.0198 16.7502H6.3598C3.7298 16.5702 2.5498 14.5502 2.5498 12.7502C2.5498 11.1702 3.45982 9.42019 5.43982 8.90019C4.91982 6.73019 5.39981 4.70013 6.80981 3.22013C8.44981 1.50013 11.0698 0.820184 13.3398 1.52018C15.3998 2.15018 16.8498 3.83014 17.3898 6.16014C19.1798 6.59014 20.6098 7.95018 21.1798 9.83018C21.8098 11.8902 21.2298 14.0001 19.6798 15.3501C18.7098 16.2501 17.4198 16.7502 16.0598 16.7502ZM6.39981 10.2602C4.78981 10.3902 4.06982 11.6002 4.06982 12.7502C4.06982 13.9102 4.79981 15.1302 6.42981 15.2502H16.0398C16.0498 15.2502 16.0598 15.2502 16.0698 15.2502C17.0498 15.2502 17.9898 14.8901 18.6998 14.2301C20.0198 13.0801 20.1098 11.4302 19.7598 10.2602C19.3998 9.09017 18.4098 7.77015 16.6698 7.55015C16.3398 7.51015 16.0798 7.26016 16.0198 6.93016C15.6798 4.88016 14.5698 3.47019 12.9098 2.96019C11.1998 2.44019 9.14982 2.97018 7.90982 4.27018C6.69982 5.54018 6.41981 7.31018 7.11981 9.27018C7.25981 9.66018 7.05983 10.0901 6.66983 10.2301C6.57983 10.2501 6.49981 10.2702 6.39981 10.2602Z" />
<path d="M12 19.75C11.59 19.75 11.25 19.41 11.25 19V16C11.25 15.59 11.59 15.25 12 15.25C12.41 15.25 12.75 15.59 12.75 16V19C12.75 19.41 12.41 19.75 12 19.75Z" />
<path d="M12 23.75C10.48 23.75 9.25 22.52 9.25 21C9.25 19.48 10.48 18.25 12 18.25C13.52 18.25 14.75 19.48 14.75 21C14.75 22.52 13.52 23.75 12 23.75ZM12 19.75C11.31 19.75 10.75 20.31 10.75 21C10.75 21.69 11.31 22.25 12 22.25C12.69 22.25 13.25 21.69 13.25 21C13.25 20.31 12.69 19.75 12 19.75Z" />
<path d="M18 21.75H14C13.59 21.75 13.25 21.41 13.25 21C13.25 20.59 13.59 20.25 14 20.25H18C18.41 20.25 18.75 20.59 18.75 21C18.75 21.41 18.41 21.75 18 21.75Z" />
<path d="M10 21.75H6C5.59 21.75 5.25 21.41 5.25 21C5.25 20.59 5.59 20.25 6 20.25H10C10.41 20.25 10.75 20.59 10.75 21C10.75 21.41 10.41 21.75 10 21.75Z" />
</svg>

<?xml version="1.0" encoding="UTF-8"?>
<svg width="24" height="24" viewBox="0 0 24 24" xmlns="http://www.w3.org/2000/svg">
 <path d="m16.06 16.75h-0.04-9.66c-2.63-0.18-3.81-2.2-3.81-4 0-1.58 0.91002-3.33 2.89-3.85-0.52-2.17-0.04001-4.2001 1.37-5.6801 1.64-1.72 4.26-2.3999 6.53-1.7 2.06 0.63 3.51 2.31 4.05 4.64 1.79 0.43 3.22 1.79 3.79 3.67 0.63 2.06 0.05 4.1699-1.5 5.5199-0.97 0.9-2.26 1.4001-3.62 1.4001zm-9.66-6.49c-1.61 0.13-2.33 1.34-2.33 2.49 0 1.16 0.72999 2.38 2.36 2.5h9.61 0.03c0.98 0 1.92-0.3601 2.63-1.0201 1.32-1.15 1.41-2.7999 1.06-3.9699-0.36-1.17-1.35-2.49-3.09-2.71-0.33-0.04-0.59-0.28999-0.65-0.61999-0.34-2.05-1.45-3.46-3.11-3.97-1.71-0.52-3.76 0.00999-5 1.31-1.21 1.27-1.49 3.04-0.79001 5 0.14 0.39-0.05998 0.81992-0.44998 0.95992-0.09 0.02-0.17002 0.0401-0.27002 0.0301z"/>
 <path d="m12 19.75c-0.41 0-0.75-0.34-0.75-0.75v-3c0-0.41 0.34-0.75 0.75-0.75s0.75 0.34 0.75 0.75v3c0 0.41-0.34 0.75-0.75 0.75z"/>
 <path d="m12 23.75c-1.52 0-2.75-1.23-2.75-2.75s1.23-2.75 2.75-2.75 2.75 1.23 2.75 2.75-1.23 2.75-2.75 2.75zm0-4c-0.69 0-1.25 0.56-1.25 1.25s0.56 1.25 1.25 1.25 1.25-0.56 1.25-1.25-0.56-1.25-1.25-1.25z"/>
 <path d="m18 21.75h-4c-0.41 0-0.75-0.34-0.75-0.75s0.34-0.75 0.75-0.75h4c0.41 0 0.75 0.34 0.75 0.75s-0.34 0.75-0.75 0.75z"/>
 <path d="m10 21.75h-4c-0.41 0-0.75-0.34-0.75-0.75s0.34-0.75 0.75-0.75h4c0.41 0 0.75 0.34 0.75 0.75s-0.34 0.75-0.75 0.75z"/>
</svg>
